X:2358
T:Mannanan song 
C:Mrs Shimmin, Foxdale 
C:Traditional
O:Isle of Man
Z:Kiaull Vannin 358 
L:1/4
M:4/4 
Q:60 
K:D 
D>E F A|d c/d/ (B/A/) F|D>E F A|B G/F/ E2| 
D>E F A|B c/d/ (B/A/) F|D>E F F|E D/C/ D2|| 

